assets/image.svg

<svg xmlns="http://www.w3.org/2000/svg" viewBox="0 0 512 512"><path d="M152.014 120c-26.51 0-48 21.492-48 48s21.49 48 48 48 48-21.492 48-48-21.491-48-48-48ZM448 32H64C28.654 32 0 60.652 0 96v320c0 35.346 28.654 64 64 64h384c35.348 0 64-28.654 64-64V96c0-35.348-28.652-64-64-64Zm16 377.303L327.229 223.379c-3.391-4.611-9.1-7.379-15.215-7.379-6.114 0-11.823 2.768-15.213 7.379L190.166 368.338l-37.092-46.102c-3.441-4.279-8.933-6.808-14.773-6.808-5.842 0-11.334 2.529-14.776 6.808l-75.507 93.848c0-.029-.018-.055-.018-.084V96c0-8.822 7.178-16 16-16h384c8.822 0 16 7.178 16 16v313.303Z"/></svg>

<svg xmlns="http://www.w3.org/2000/svg" viewBox="0 0 512 512"><!-- Font Awesome Pro 6.0.0-alpha2 by @fontawesome - https://fontawesome.com License - https://fontawesome.com/license (Commercial License) --><path d="M152.014 120C125.504 120 104.014 141.492 104.014 168S125.504 216 152.014 216S200.014 194.508 200.014 168S178.523 120 152.014 120ZM448 32H64C28.654 32 0 60.652 0 96V416C0 451.346 28.654 480 64 480H448C483.348 480 512 451.346 512 416V96C512 60.652 483.348 32 448 32ZM464 409.303L327.229 223.379C323.838 218.768 318.129 216 312.014 216C305.9 216 300.191 218.768 296.801 223.379L190.166 368.338L153.074 322.236C149.633 317.957 144.141 315.428 138.301 315.428C132.459 315.428 126.967 317.957 123.525 322.236L48.018 416.084C48.018 416.055 48 416.029 48 416V96C48 87.178 55.178 80 64 80H448C456.822 80 464 87.178 464 96V409.303Z"/></svg>
